X:1
T:Doane, 10.10 D
T:Doane, 10.10 D
T:William Howard Doane, 1883
T:Public Domain Courtesy of the Cyber Hymnal™
C:William Howard Doane, 1883
Z:Public Domain
Z:Courtesy of the Cyber Hymnal™
%%score ( 1 2 ) ( 3 4 )
L:1/8
Q:1/4=110
M:4/4
K:D
V:1 treble 
V:2 treble 
V:3 bass 
V:4 bass 
V:1
 [Fd]4 [FA]2 [DF]2 | [FA]3 [GB] [FA]4 | [Ge]4 [Fd]2 c2 | [Fd]6 z2 | [GB]4 [Ac]2 [GB]2 | %5
 [FA]3 [EG] [DF]4 | [FA]4 [^E^G]2 [EB]2 | [FA]6 z2 | [Gc]4 [Ge]2 [Gc]2 | [Fd]3 [FA] [FA]4 | %10
 [GB]4 [Ac]2 [GB]2 | [FA]6 z2 | [Fd]4 [FA]2 [DF]2 | [DG]3 [DA] [DB]2 [^Ed]2 | [Fd]4 c4 | %15
 [Fd]6 z2 |] %16
V:2
 x8 | x8 | x6 (EG) | x8 | x8 | x8 | x8 | x8 | x8 | x8 | x8 | x8 | x8 | x8 | x4 (E2 G2) | x8 |] %16
V:3
 [D,A,]4 [D,D]2 [D,A,]2 | [D,D]3 [D,D] [D,D]4 | [G,B,]4 A,2 [A,,A,]2 | [D,A,]6 z2 | %4
 [G,D]4 [G,D]2 [G,D]2 | [D,D]3 [D,A,] [D,A,]4 | [C,C]4 [C,C]2 [C,C]2 | [F,C]6 z2 | %8
 [A,,A,E]4 [A,,A,C]2 [A,,A,]2 | [D,A,]3 [D,D] [D,D]4 | [G,D]4 [G,D]2 [G,D]2 | [D,D]6 z2 | %12
 [D,A,]4 [D,D]2 [=C,A,]2 | [B,,G,]3 [A,,F,] [G,,G,]2 [^G,,B,]2 | [A,,A,]4 [A,,A,]4 | [D,A,]6 z2 |] %16
V:4
 x8 | x8 | x4 A,2 x2 | x8 | x8 | x8 | x8 | x8 | x8 | x8 | x8 | x8 | x8 | x8 | x8 | x8 |] %16

